!!!OTL: 322. Der Dessauer Marsch (1706).
!!!ARE: Europa, Mitteleuropa, Deutschland
!!!SCT: E0322
!!!TXL: @@DE
!!!YEM: Copyright 1995, estate of Helmut Schaffrath.
**kern	**text
*ICvox	*
*M2/4	*
*k[b-e-]	*
*B-:	*
!LO:TX:a:t=Mäßig bewegt.	!
{8f	Die
=1	=1
8.b-	Trommel
16f	.
8.d	ruft,
16f	Dromme-
=2	=2
8.b-	.
16f	-te
8.d}	klingt,
{16f	wir
=3	=3
8.b-	ʒie-
16a	-hen
8.b-	fort
16cc	ʒum
=4	=4
4dd	Streite,
4b-}	.
=5	=5
{8.dd	wo
16cc	uns
8.dd	Kö-
16ee-	-nig
=6	=6
4ff	Fried-
8ee-}	-rich
{8dd	den
=7	=7
4cc	Sieg
4cc	verſpricht.
=8	=8
4cc	.
4r}	.
=9||	=9||
{8.cc	Wenn
16dd	der
8.cc	gan-
16b-	-ʒe
=10	=10
8.a	Er-
16g	-den-
8f}	-kreis
{8a	ſich
=11	=11
8.cc	auch
16b-	mit
8.cc	ihm
16dd	ent-
=12	=12
4ee-	-ʒwei-
4cc}	-te,
=13	=13
{8.dd	blei-
16cc	-ben
8.dd	ſei-
16ee-	-ne
=14	=14
8.ff	Preu-
16ff	-ßen
8.b-}	treu,
{16cc	ſo
=15	=15
4dd	ſürcht't
8.cc	er
16cc	ſich
=16	=16
4b-	nicht.
8r}	.
==	==
!!!AGN: historisches Lied, Krieg (1706)
!!!ONB: ESAC (Essen Associative Code) Database: ERK1
!!!AMT: simple duple
!!!AIN: vox
!!!EED: Helmut Schaffrath
!!!EEV: 1.0
!!!GTL: Historische Lieder
!!!URL-scan: https://rosdok.uni-rostock.de/mcrviewer/recordIdentifier/rosdok_ppn745177662/iview2/phys_0134.iview2?x=-544.0401362767932&y=1723.4437061873032&scale=0.4722427387526479&rotation=0&layout=singlePageLayout
!!!ENC: Anna Maria Matuszewska
!!!EEV: 2024/06/12
*-	*-
